tools/download-figma-icons/icons/outlined-large/cup.svg

<svg width="64" height="64" viewBox="0 0 64 64" fill="none" xmlns="http://www.w3.org/2000/svg">
<path fill-rule="evenodd" clip-rule="evenodd" d="M33 15.4996C33 16.6096 31.84 18.0296 31.44 18.4396C30.85 19.0296 30.85 19.9796 31.44 20.5596C31.73 20.8496 32.12 20.9996 32.5 20.9996C32.88 20.9996 33.27 20.8496 33.56 20.5596C33.81 20.3096 36 18.0496 36 15.4996C36 12.9496 34.65 11.5296 33.56 10.4396C32.62 9.49957 32 8.87957 32 7.49957C32 6.11957 32.62 5.49957 33.56 4.55957C34.15 3.96957 34.14 3.01957 33.56 2.43957C32.98 1.84957 32.02 1.84957 31.44 2.43957C30.35 3.52957 29 4.87957 29 7.49957C29 10.1196 30.35 11.4696 31.44 12.5596C32.38 13.4996 33 14.1196 33 15.4996ZM47 27H49.5C53.64 27 57 30.36 57 34.5V44.5C57 48.64 53.64 52 49.5 52H46.33C44.4 58.36 38.48 63 31.5 63H22.5C13.95 63 7 56.05 7 47.5V25.5C7 24.67 7.67 24 8.5 24H45.5C46.33 24 47 24.67 47 25.5V27ZM48.5 35H47V44H48.5C48.78 44 49 43.78 49 43.5V35.5C49 35.22 48.78 35 48.5 35ZM31.5 60C38.39 60 44 54.39 44 47.5V27H10V47.5C10 54.39 15.61 60 22.5 60H31.5ZM49.5 49C51.98 49 54 46.98 54 44.5V34.5C54 32.02 51.98 30 49.5 30H47V32H48.5C50.43 32 52 33.57 52 35.5V43.5C52 45.43 50.43 47 48.5 47H47V47.5C47 48.01 46.97 48.51 46.92 49H49.5ZM16 47.5C16 51.08 18.92 54 22.5 54C23.33 54 24 54.67 24 55.5C24 56.33 23.33 57 22.5 57C17.26 57 13 52.74 13 47.5C13 46.67 13.67 46 14.5 46C15.33 46 16 46.67 16 47.5ZM20.44 18.4396C20.84 18.0296 22 16.6096 22 15.4996C22 14.1196 21.38 13.4996 20.44 12.5596C19.35 11.4696 18 10.1196 18 7.49957C18 4.87957 19.35 3.52957 20.44 2.43957C21.02 1.84957 21.98 1.84957 22.56 2.43957C23.14 3.01957 23.15 3.96957 22.56 4.55957C21.62 5.49957 21 6.11957 21 7.49957C21 8.87957 21.62 9.49957 22.56 10.4396L22.56 10.4396C23.65 11.5296 25 12.9496 25 15.4996C25 18.0496 22.81 20.3096 22.56 20.5596C22.27 20.8496 21.88 20.9996 21.5 20.9996C21.12 20.9996 20.73 20.8496 20.44 20.5596C19.85 19.9796 19.85 19.0296 20.44 18.4396Z" fill="black"/>
</svg>

<svg xmlns="http://www.w3.org/2000/svg" width="64" height="64" fill="none" viewBox="0 0 64 64"><path fill="currentColor" fill-rule="evenodd" d="M33 15.5c0 1.11-1.16 2.53-1.56 2.94a1.49 1.49 0 0 0 0 2.12c.29.29.68.44 1.06.44s.77-.15 1.06-.44c.25-.25 2.44-2.51 2.44-5.06s-1.35-3.97-2.44-5.06C32.62 9.5 32 8.88 32 7.5s.62-2 1.56-2.94a1.5 1.5 0 0 0 0-2.12 1.49 1.49 0 0 0-2.12 0C30.35 3.53 29 4.88 29 7.5s1.35 3.97 2.44 5.06c.94.94 1.56 1.56 1.56 2.94M47 27h2.5c4.14 0 7.5 3.36 7.5 7.5v10c0 4.14-3.36 7.5-7.5 7.5h-3.17c-1.93 6.36-7.85 11-14.83 11h-9C13.95 63 7 56.05 7 47.5v-22c0-.83.67-1.5 1.5-1.5h37c.83 0 1.5.67 1.5 1.5zm1.5 8H47v9h1.5c.28 0 .5-.22.5-.5v-8c0-.28-.22-.5-.5-.5m-17 25C38.39 60 44 54.39 44 47.5V27H10v20.5C10 54.39 15.61 60 22.5 60zm18-11c2.48 0 4.5-2.02 4.5-4.5v-10c0-2.48-2.02-4.5-4.5-4.5H47v2h1.5c1.93 0 3.5 1.57 3.5 3.5v8c0 1.93-1.57 3.5-3.5 3.5H47v.5c0 .51-.03 1.01-.08 1.5zM16 47.5c0 3.58 2.92 6.5 6.5 6.5.83 0 1.5.67 1.5 1.5s-.67 1.5-1.5 1.5c-5.24 0-9.5-4.26-9.5-9.5 0-.83.67-1.5 1.5-1.5s1.5.67 1.5 1.5m4.44-29.06c.4-.41 1.56-1.83 1.56-2.94 0-1.38-.62-2-1.56-2.94C19.35 11.47 18 10.12 18 7.5s1.35-3.97 2.44-5.06a1.49 1.49 0 0 1 2.12 0 1.5 1.5 0 0 1 0 2.12C21.62 5.5 21 6.12 21 7.5s.62 2 1.56 2.94C23.65 11.53 25 12.95 25 15.5s-2.19 4.81-2.44 5.06c-.29.29-.68.44-1.06.44s-.77-.15-1.06-.44a1.49 1.49 0 0 1 0-2.12" clip-rule="evenodd"/></svg>
